!!!!SEGMENT: pl-kk--kk-i-201--005_anonim--fortem-virili-pectore.krn
!!!cenid: 16xx:759
!!!COM: Anonim
!!!COM-rismID: pe30004985
!!!CDT:
!!!CNT:
!!!OTL: Fortem virili pectore
!!!PDT:
!!!AGN: Sacred
!!!SMS-siglum: PL-Kk
!!!SMS-shelfmark: Kk.I.201
!!!SMS-shelfwork: 005 W
!!!SMS-variant:
!!!SMS-altvar:
!!!NIFC-rismSourceID: 1001151123
!!!NIFC-rismChildID: 1001143739
!!!NIFC-islandoraID: pl-kk:21943
!!!URL-pdf-islandora: https://repozytorium.nifc.pl/islandora/object/pl-kk%3A21943/datastream/PDF/view
!!!URL-scan:
!!!ONB-nifc: UWAGA: utwory w zbiorze: 1. Jesu Redemptor omnium, 2. Jesu corona celsior, 3. Virginis protes, 4. Virginis partum canimus, 5. Fortem virili pectore
!!!AIN: 1 empty
!!!key:
**kern	**text	**text
*Iempty	*	*
*I"Baſso Ripieno.	*	*
*I'B rip	*	*
*clefF4	*	*
*k[]	*	*
*C:	*	*
*M3/2	*	*
=1	=1	=1
!LO:TX:a:t=De Sanctis Mulieribus.	!	!
2C/	I. For-	5. DE-
*2\right	*	*
2E\	tem	.
2G\	vi-	-O
=2	=2	=2
2E\	-ri-	Pa-
2C,</	-li	-tri
2B\	Vi-	Pa-
=3	=3	=3
1A\	-ri-	-tri
2D/	-li	sit
=4	=4	=4
2.G\	pe-	glo-
4GG/	-cto-	-(ri)-
2GG/	-re	-a
=5	=5	=5
2G\	Lau-	E-
2.C/	-de-	-jus-
4C/	-m(us)	-(que)
=6	=6	=6
2.D/	om-	so-
4C/	.	.
2BB/	-nes	-li
=7	=7	=7
4BB/	Fae-	Fi-
4C/	.	.
2.D\	.	.
4D\	-mi-	-li-
=8	=8	=8
1GG/,<	-nam	-o
2E\	Quae	cum
=9	=9	=9
2.F\	san-	Spi-
4E\	-cti-	-ri-
2D\	-ta-	-tu
=10	=10	=10
2C/	-tis	Pa-
2.D\	glo-	-ra-
4D\	-ri-	-cli-
=11	=11	=11
1C/,<	-a	-to
*custos:G	*	*
2C/	u-	in
!!LO:LB:g=original
=12	=12	=12
2.G\	-bi-	sem-
4E\	-que	-pi-
2F\	ful-	-ter-
=13	=13	=13
2D\	-get	-na
2.E\	in-	sae-
4E\	-cly-	-cu-
=14	=14	=14
1AA/,<	-ta	-la
2C/	Lau-	in
=15	=15	=15
2E\	-de-	sem-
2C/	-m(us)	-pi-
*	*ij	*
2G\	Lau-	-ter-
=16	=16	=16
2c\	-de-	-na
2c\	-mus	.
*	*Xij	*
=||:	=||	=||
2C/	Lau-	in
=17	=17	=17
2.F\	-de-	sem-
4F\	-m(us)	-pi-
2G\	o(m)-	-ter-
=18	=18	=18
2E,\	-nes	-na
2.G\	fae-	sae-
4GG/	-mi-	-cu-
=19	=19	=19
!LO:N:vis=0	!	!
1.C/;	-na(m)	-la
=20:||	=20||	=20||
*M3/2	*	*
1.C/	2. Haec	.
=21	=21	=21
2c\	sa-	.
2c\	-cro	.
2C/	a-	.
=22	=22	=22
1C/	-mo-	.
2BB/	-re	.
=23	=23	=23
2.C/	sau-	.
4C/	-ci-	.
4C/	-a,	.
4C/	du(m)	.
=24	=24	=24
2F\	mun-	.
2F\	-di	.
2F\	a-	.
!!LO:LB:g=original
=25	=25	=25
1.G\	-mo-	.
=26	=26	=26
2F#X\	-rem	.
2.G\	no-	.
4GG/	-xi-	.
=27	=27	=27
1C/,<	-um	.
2BB/	hor-	.
=28	=28	=28
(4C/	-re-	.
4BB/)	.	.
(4C/	-ſcit,	.
4D/)	.	.
2E\	ad	.
=29	=29	=29
2BB/	coe-	.
2.D\	-le-	.
4D\	-ſti-	.
=30	=30	=30
1GG/,<	-a	.
2E\	i-	.
=31	=31	=31
(4F\	-ter	.
4E\	.	.
4F\	pe-	.
4G\)	.	.
2A\	-re-	.
=32	=32	=32
2E\	-git	.
2.G\	ar-	.
4GG/	-du-	.
=33	=33	=33
2GG,</	-u(m)	.
(4G\	i-	.
4F\	.	.
2E\)	.	.
=34	=34	=34
2.F,<\	-ter	.
4E\	pe-	.
2D\	-re-	.
=35	=35	=35
2C/	-git	.
2.G\	ar-	.
4GG/	-du-	.
=36	=36	=36
1.C/	-um	.
=37||	=37||	=37||
!LO:TX:a:t=T.	!	!
1C/	3 Car-	.
2C/	-nem	.
=38	=38	=38
2F\	do-	.
2F\	-mans	.
2C/	Je-	.
=39	=39	=39
2.G\	-ju-	.
4G\	-ni-	.
2GG/	-js	.
=40	=40	=40
2G\	dul-	.
2GG/	-ci-	.
2GG/	-(que)	.
!!LO:LB:g=original
=41	=41	=41
1C/	men-	.
2D/	-tem	.
=42	=42	=42
4BB/	pa-	.
4C/	.	.
2.D\	.	.
4D\	-bu-	.
=43	=43	=43
1GG/,<	-lo	.
2C/	o-	.
=44	=44	=44
2.F\	-ra-	.
4E\	-ti-	.
2D\	-o-	.
=45	=45	=45
2C/	-nis	.
2.G\	nu-	.
4F#X\	-tri-	.
=46	=46	=46
1G\,<	-ens	.
2GG/	Cae-	.
=47	=47	=47
2.C/	-li	.
4BB/	po-	.
(4C/	-ti-	.
4D/)	.	.
=48	=48	=48
2E,<\	-tur	.
2C/	gau-	.
4D/	.	.
4D/	-di-	.
=49	=49	=49
1GG/,<	-js	.
2G\	Cae-	.
=50	=50	=50
1C/	-li	.
2E\	po-	.
=51	=51	=51
(4F\	-ti-	.
4G\	.	.
4A\)	.	.
4B\	.	.
2c\	-tur	.
=52	=52	=52
(4E\	gau-	.
4F\	.	.
2G\)	.	.
2GG/	-di-	.
=53	=53	=53
1.C/	-js.	.
=54||	=54||	=54||
!LO:TX:a:t=T.	!	!
2C/	4. Rex	.
2C/	X-	.
2BB/	-te	.
=55	=55	=55
1AA/	Vir-	.
2D\	-t(us)	.
=56	=56	=56
2.G\	For-	.
4G\	-ti-	.
2GG/	-u(m)	.
!!LO:LB:g=original
=57	=57	=57
2BB/	Qui	.
2BB/	mag-	.
2BB/	-na	.
=58	=58	=58
2.C/	so-	.
4D/	.	.
2E/	-l(us)	.
=59	=59	=59
2BB/	ef-	.
2.D/	.	.
4D/	-fi-	.
=60	=60	=60
1.GG/	-cis	.
=61	=61	=61
2E\	Hu-	.
2E\	-jus	.
2E/	pre-	.
=62	=62	=62
2A\	-ca-	.
2A\	-tu	.
*	*ij	*
2AA/	pre-	.
=63	=63	=63
2.D/	-ca-	.
(4E\	-tu	.
*	*Xij	*
2F\)	.	.
=64	=64	=64
1E\	quae-	.
2E/	-su-	.
=65	=65	=65
1AA/,<	-m(us)	.
2E/	au-	.
=66	=66	=66
1F\,<	-di	.
2F\	be-	.
=67	=67	=67
2G\	-nig-	.
2G,<\	-n(us)	.
2G\	au-	.
=68	=68	=68
2A\	.	.
2AA/	.	.
!LO:TX:t=P:problem=♮ above	!	!
2BBn,</	-di	.
=69	=69	=69
(4BB/	be-	.
4C/)	.	.
2.D/	-nig-	.
4D/	-n(us)	.
=70	=70	=70
1GG/	sup-	.
2C/	-pli-	.
=71	=71	=71
1G\,<	-ces	.
2D/	au-	.
=72	=72	=72
2.G\	-di	.
4G\	be-	.
2C/	-nig-	.
=73	=73	=73
2E\	-n(us)	.
2.G\	[sup-	.
4GG/	-pli-	.
=74	=74	=74
1.C/	-ces]	.
==	==	==
*-	*-	*-
!!!RDF**kern: > = above
!!!RDF**kern: < = below
!!!EED: Leszek Kubiak
!!!EEV: 2021-02-18
!!!ENC: Krzysztof Stępień
!!!END: 2021-02-12
!!!YEC: Copyright 2022 Narodowy Instytut Fryderyka Chopina (https://polishscores.org)
!!!YEM: License CC-BY-4.0 (https://creativecommons.org/licenses/by/4.0)
